X:1
T:Title
%%score ( 1 2 ) ( 3 4 )
L:1/8
M:4/4
K:C
V:1 treble nm="Choir Aahs, Staff"
V:2 treble 
V:3 bass nm="Choir Aahs, Staff-1"
V:4 bass 
V:1
 [Ec]4 [EA]2 [CE]2 | [CF]4 [B,F]4 | [CE]8 | [CE]4 [CE]2 [CE]2 | [DA]4 [DB]4 | [Cc]8 | %6
w: By~John~Bernard~Wilkes,~1861 * *||||||
 [Fc]4 [Fc]2 [Fc]2 | c4 B4 | [FB]4 [FA]2 [FG]2 | [FG]4 [Ec]4 | [Ec]4 [DB]2 [EA]2 | %11
w: |||||
 [FA]4 ^G2- [DG]2 | [CA]8 |] %13
w: ||
V:2
 x8 | x8 | x8 | x8 | x8 | x8 | x8 | F8 | x8 | x8 | x8 | z4 E2 z2 | x8 |] %13
V:3
 [A,,C]4 [A,,C]2 [C,A,]2 | [D,A,]4 [G,,G,]4 | [C,G,]8 | [A,,A,]4 [C,A,]2 [E,C]2 | %4
 [F,A,]4 [E,^G,]4 | [A,,A,]8 | [F,A,]4 [F,A,]2 [F,A,]2 | A,4 G,4 | [G,D]4 [G,C]2 [G,B,]2 | B,4 C4 | %10
 [A,,C]4 [B,,^G,]2 [C,A,]2 | [D,B,]4 [E,B,]4 | [A,,A,]8 |] %13
V:4
 x8 | x8 | x8 | x8 | x8 | x8 | x8 | D,8 | x8 | C,8 | x8 | x8 | x8 |] %13

